src/assets/svg/wavetify.svg

<svg width="113" height="90" viewBox="0 0 113 90" fill="none" xmlns="http://www.w3.org/2000/svg">
<path d="M35.7946 19.9427C35.7946 17.097 33.6997 14.7901 31.1154 14.7901C28.5311 14.7901 26.4362 17.097 26.4362 19.9427V47.8053C26.4362 50.6511 28.5311 52.958 31.1154 52.958C33.6997 52.958 35.7946 50.6511 35.7946 47.8053V19.9427Z" fill="#141416" fill-opacity="0.7"/>
<path d="M61.0621 8.69939C61.0621 3.89485 58.9671 0 56.3829 0C53.7986 0 51.7037 3.89485 51.7037 8.69939V55.7394C51.7037 60.5439 53.7986 64.4388 56.3829 64.4388C58.9671 64.4388 61.0621 60.5439 61.0621 55.7394V8.69939Z" fill="#141416" fill-opacity="0.7"/>
<path d="M48.8965 32.2234C48.8965 29.8579 46.8016 27.9403 44.2173 27.9403C41.633 27.9403 39.5381 29.8579 39.5381 32.2234V55.3848C39.5381 57.7503 41.633 59.6679 44.2173 59.6679C46.8016 59.6679 48.8965 57.7503 48.8965 55.3848V32.2234Z" fill="#141416" fill-opacity="0.7"/>
<path d="M74.8655 23.8071C74.8655 21.6105 72.7705 19.8299 70.1863 19.8299C67.602 19.8299 65.5071 21.6105 65.5071 23.8071V45.3138C65.5071 47.5104 67.602 49.291 70.1863 49.291C72.7705 49.291 74.8655 47.5104 74.8655 45.3138V23.8071Z" fill="#141416" fill-opacity="0.7"/>
<path d="M87.4989 20.8123C87.4989 17.0418 85.404 13.9853 82.8197 13.9853C80.2354 13.9853 78.1405 17.0418 78.1405 20.8123V57.7314C78.1405 61.5018 80.2354 64.5584 82.8197 64.5584C85.404 64.5584 87.4989 61.5018 87.4989 57.7314V20.8123Z" fill="#141416" fill-opacity="0.7"/>
<path d="M101.069 33.4988C101.069 32.0757 98.9737 30.9221 96.3895 30.9221C93.8052 30.9221 91.7103 32.0757 91.7103 33.4988V47.4298C91.7103 48.8528 93.8052 50.0064 96.3895 50.0064C98.9737 50.0064 101.069 48.8528 101.069 47.4298V33.4988Z" fill="#141416" fill-opacity="0.7"/>
<path d="M22.9276 27.5351C22.9276 26.1121 20.8326 24.9585 18.2484 24.9585C15.6641 24.9585 13.5691 26.1121 13.5691 27.5351V41.4661C13.5691 42.8892 15.6641 44.0428 18.2484 44.0428C20.8326 44.0428 22.9276 42.8892 22.9276 41.4661V27.5351Z" fill="#141416" fill-opacity="0.7"/>
<path d="M4.44497 43.8041C6.89986 43.8041 8.88994 41.8014 8.88994 39.331C8.88994 36.8607 6.89986 34.858 4.44497 34.858C1.99008 34.858 0 36.8607 0 39.331C0 41.8014 1.99008 43.8041 4.44497 43.8041Z" fill="#141416" fill-opacity="0.7"/>
<path d="M108.555 43.8041C111.01 43.8041 113 41.8014 113 39.331C113 36.8607 111.01 34.858 108.555 34.858C106.1 34.858 104.11 36.8607 104.11 39.331C104.11 41.8014 106.1 43.8041 108.555 43.8041Z" fill="#141416" fill-opacity="0.7"/>
<path d="M8.95201 84.0553L3.56082 63.8351H6.31878L9.40936 77.09C9.74197 78.4784 10.0284 79.8577 10.2686 81.2278C10.786 79.0669 11.0909 77.821 11.1833 77.49L15.05 63.8351H18.293L21.2034 74.0693C21.9334 76.6072 22.46 78.9934 22.7834 81.2278C23.0421 79.9497 23.3793 78.483 23.7951 76.8279L26.9827 63.8351H29.6852L24.1139 84.0553H21.5222L17.2397 68.6488C16.8794 67.3615 16.6669 66.5707 16.6022 66.2764C16.3897 67.2051 16.1911 67.9959 16.0063 68.6488L11.6961 84.0553H8.95201Z" fill="#141416" fill-opacity="0.7"/>
<path d="M40.4399 82.2485C39.5159 83.03 38.6243 83.5818 37.7651 83.9036C36.915 84.2254 36.0003 84.3863 35.021 84.3863C33.4041 84.3863 32.1614 83.9955 31.2929 83.214C30.4244 82.4232 29.9901 81.4163 29.9901 80.1933C29.9901 79.4761 30.1518 78.8232 30.4752 78.2348C30.8078 77.6371 31.2374 77.1589 31.7641 76.8003C32.3 76.4417 32.9005 76.1704 33.5658 75.9865C34.0554 75.8578 34.7946 75.7337 35.7832 75.6141C37.7974 75.3751 39.2803 75.09 40.232 74.759C40.2412 74.4188 40.2458 74.2027 40.2458 74.1107C40.2458 73.0993 40.0102 72.3866 39.539 71.9728C38.9015 71.4119 37.9545 71.1315 36.6979 71.1315C35.5245 71.1315 34.656 71.3384 34.0924 71.7522C33.538 72.1567 33.1269 72.8786 32.8589 73.9176L30.4197 73.5866C30.6415 72.5475 31.0064 71.7108 31.5146 71.0763C32.0228 70.4326 32.7573 69.9407 33.7182 69.6005C34.6791 69.2511 35.7924 69.0763 37.0582 69.0763C38.3148 69.0763 39.3358 69.2235 40.1211 69.5177C40.9065 69.812 41.4839 70.1844 41.8535 70.6349C42.2231 71.0763 42.4818 71.6372 42.6296 72.3177C42.7128 72.7406 42.7543 73.5038 42.7543 74.6073V77.9175C42.7543 80.2255 42.8052 81.6876 42.9068 82.3036C43.0177 82.9105 43.2302 83.4944 43.5443 84.0553H40.9388C40.6801 83.5404 40.5138 82.9381 40.4399 82.2485ZM40.232 76.7038C39.3265 77.0716 37.9683 77.3842 36.1574 77.6417C35.1318 77.7888 34.4065 77.9543 33.9815 78.1382C33.5565 78.3221 33.2285 78.5934 32.9975 78.952C32.7665 79.3014 32.6511 79.6922 32.6511 80.1244C32.6511 80.7864 32.9005 81.3381 33.3994 81.7795C33.9076 82.2209 34.6468 82.4416 35.6169 82.4416C36.5778 82.4416 37.4324 82.2347 38.1808 81.8209C38.9292 81.3979 39.479 80.8232 39.8301 80.0968C40.098 79.5359 40.232 78.7083 40.232 77.6141V76.7038Z" fill="#141416" fill-opacity="0.7"/>
<path d="M50.7233 84.0553L45.1242 69.4074H47.7575L50.9173 78.1796C51.2592 79.1267 51.5733 80.1106 51.8598 81.1312C52.0815 80.3588 52.391 79.4301 52.7883 78.3451L56.0591 69.4074H58.623L53.0516 84.0553H50.7233Z" fill="#141416" fill-opacity="0.7"/>
<path d="M70.9022 79.3382L73.4799 79.6554C73.0734 81.1542 72.3204 82.3174 71.2209 83.145C70.1214 83.9726 68.717 84.3863 67.0078 84.3863C64.855 84.3863 63.1457 83.7289 61.8799 82.414C60.6233 81.0899 59.995 79.237 59.995 76.8555C59.995 74.3912 60.6326 72.4786 61.9076 71.1177C63.1826 69.7568 64.8365 69.0763 66.8692 69.0763C68.8372 69.0763 70.4448 69.743 71.6921 71.0763C72.9394 72.4096 73.5631 74.2854 73.5631 76.7038C73.5631 76.8509 73.5585 77.0716 73.5492 77.3658H62.5728C62.6652 78.975 63.1226 80.2071 63.9449 81.0623C64.7672 81.9174 65.7928 82.345 67.0216 82.345C67.9363 82.345 68.717 82.1059 69.3638 81.6278C70.0106 81.1496 70.5233 80.3864 70.9022 79.3382ZM62.7114 75.3245H70.9299C70.819 74.0923 70.5049 73.1682 69.9874 72.5521C69.1929 71.5958 68.1627 71.1177 66.8969 71.1177C65.7512 71.1177 64.7857 71.4993 64.0003 72.2625C63.2242 73.0257 62.7946 74.0463 62.7114 75.3245Z" fill="#141416" fill-opacity="0.7"/>
<path d="M82.0726 81.8347L82.4329 84.0277C81.7307 84.1749 81.1024 84.2484 80.5481 84.2484C79.6426 84.2484 78.9404 84.1059 78.4415 83.8208C77.9426 83.5358 77.5915 83.1634 77.3882 82.7036C77.1849 82.2347 77.0833 81.2554 77.0833 79.7658V71.3384H75.2539V69.4074H77.0833V65.7799L79.5641 64.2903V69.4074H82.0726V71.3384H79.5641V79.9037C79.5641 80.6117 79.6057 81.0669 79.6888 81.2692C79.7812 81.4715 79.9244 81.6324 80.1184 81.7519C80.3217 81.8715 80.6081 81.9312 80.9777 81.9312C81.2549 81.9312 81.6199 81.899 82.0726 81.8347Z" fill="#141416" fill-opacity="0.7"/>
<path d="M84.5395 66.6902V63.8351H87.0341V66.6902H84.5395ZM84.5395 84.0553V69.4074H87.0341V84.0553H84.5395Z" fill="#141416" fill-opacity="0.7"/>
<path d="M91.4413 84.0553V71.3384H89.2377V69.4074H91.4413V67.8488C91.4413 66.8649 91.5291 66.1339 91.7047 65.6557C91.9449 65.0121 92.3653 64.4925 92.9658 64.0972C93.5756 63.6926 94.4257 63.4903 95.5159 63.4903C96.2181 63.4903 96.9942 63.573 97.8442 63.7385L97.47 65.904C96.9526 65.8121 96.4629 65.7661 96.001 65.7661C95.2433 65.7661 94.7075 65.927 94.3933 66.2488C94.0792 66.5707 93.9221 67.173 93.9221 68.0557V69.4074H96.7909V71.3384H93.9221V84.0553H91.4413Z" fill="#141416" fill-opacity="0.7"/>
<path d="M98.6342 89.6966L98.357 87.3656C98.9021 87.5127 99.378 87.5863 99.7845 87.5863C100.339 87.5863 100.782 87.4943 101.115 87.3104C101.448 87.1265 101.72 86.869 101.933 86.538C102.09 86.2897 102.344 85.6737 102.695 84.6898C102.741 84.5518 102.815 84.3496 102.917 84.0829L97.3314 69.4074H100.02L103.083 77.8899C103.48 78.9658 103.836 80.0968 104.15 81.283C104.437 80.1428 104.778 79.0301 105.176 77.9451L108.322 69.4074H110.816L105.217 84.3036C104.617 85.9127 104.15 87.0208 103.817 87.6276C103.374 88.446 102.866 89.0437 102.293 89.4207C101.72 89.8069 101.036 90 100.242 90C99.7614 90 99.2255 89.8989 98.6342 89.6966Z" fill="#141416" fill-opacity="0.7"/>
</svg>

<svg xmlns="http://www.w3.org/2000/svg" width="113" height="90" fill="none"><path fill="#141416" fill-opacity=".7" d="M35.795 19.943c0-2.846-2.095-5.153-4.68-5.153s-4.679 2.307-4.679 5.153v27.862c0 2.846 2.095 5.153 4.68 5.153s4.679-2.307 4.679-5.153zM61.062 8.7c0-4.805-2.095-8.7-4.68-8.7-2.583 0-4.678 3.895-4.678 8.7v47.04c0 4.804 2.095 8.699 4.679 8.699s4.68-3.895 4.68-8.7zM48.897 32.223c0-2.365-2.095-4.283-4.68-4.283s-4.679 1.918-4.679 4.283v23.162c0 2.365 2.095 4.283 4.68 4.283s4.679-1.918 4.679-4.283zm25.969-8.416c0-2.197-2.096-3.977-4.68-3.977s-4.679 1.78-4.679 3.977v21.507c0 2.196 2.095 3.977 4.68 3.977s4.679-1.78 4.679-3.977zm12.633-2.995c0-3.77-2.095-6.827-4.68-6.827s-4.678 3.057-4.678 6.827v36.92c0 3.77 2.094 6.826 4.679 6.826 2.584 0 4.679-3.056 4.679-6.827zm13.57 12.687c0-1.423-2.095-2.577-4.68-2.577S91.71 32.076 91.71 33.5v13.93c0 1.424 2.095 2.577 4.68 2.577s4.679-1.153 4.679-2.576zm-78.141-5.964c0-1.423-2.095-2.576-4.68-2.576s-4.679 1.153-4.679 2.576v13.931c0 1.423 2.095 2.577 4.68 2.577s4.679-1.154 4.679-2.577zM4.445 43.804c2.455 0 4.445-2.003 4.445-4.473s-1.99-4.473-4.445-4.473S0 36.861 0 39.331s1.99 4.473 4.445 4.473m104.11 0c2.455 0 4.445-2.003 4.445-4.473s-1.99-4.473-4.445-4.473-4.445 2.003-4.445 4.473 1.99 4.473 4.445 4.473M8.952 84.055l-5.391-20.22h2.758l3.09 13.255q.5 2.083.86 4.138.776-3.242.914-3.738l3.867-13.655h3.243l2.91 10.234q1.095 3.807 1.58 7.159a99 99 0 0 1 1.012-4.4l3.188-12.993h2.702l-5.571 20.22h-2.592L17.24 68.65q-.54-1.93-.638-2.373a49 49 0 0 1-.596 2.373l-4.31 15.406zm31.488-1.806q-1.386 1.172-2.675 1.655a7.7 7.7 0 0 1-2.744.482q-2.426 0-3.728-1.172-1.303-1.186-1.303-3.02 0-1.076.485-1.96a4.1 4.1 0 0 1 1.29-1.434 6.2 6.2 0 0 1 1.8-.813q.736-.194 2.218-.373 3.021-.359 4.449-.855.014-.51.014-.648 0-1.518-.707-2.138-.956-.841-2.841-.841-1.76 0-2.606.62-.831.608-1.233 2.166l-2.44-.331q.334-1.56 1.096-2.51.762-.966 2.203-1.477 1.441-.524 3.34-.524 1.885 0 3.063.442 1.178.44 1.732 1.117.555.662.777 1.683.124.634.124 2.29v3.31q0 3.461.153 4.386.165.91.637 1.751H40.94q-.388-.772-.5-1.806m-.208-5.545q-1.358.552-4.075.938-1.538.22-2.175.496a2.15 2.15 0 0 0-.984.814 2.1 2.1 0 0 0-.347 1.172q0 .993.748 1.656.763.661 2.218.662 1.44 0 2.564-.621 1.122-.635 1.65-1.724.4-.842.401-2.483zm10.491 7.351-5.599-14.648h2.633l3.16 8.773a43 43 0 0 1 .943 2.951q.332-1.157.928-2.786l3.271-8.938h2.564l-5.571 14.648zm20.179-4.717 2.578.317q-.61 2.249-2.26 3.49-1.648 1.242-4.212 1.241-3.23 0-5.128-1.972-1.885-1.986-1.885-5.558 0-3.697 1.913-5.738 1.912-2.042 4.961-2.042 2.952 0 4.823 2 1.87 2.001 1.871 5.628 0 .22-.014.662H62.573q.138 2.413 1.372 3.696t3.077 1.283q1.371 0 2.342-.717.97-.718 1.538-2.29m-8.19-4.013h8.218q-.166-1.85-.943-2.773-1.191-1.434-3.09-1.434-1.719 0-2.897 1.145-1.163 1.144-1.289 3.061m19.362 6.511.36 2.193a9.3 9.3 0 0 1-1.885.22q-1.358 0-2.106-.427-.749-.428-1.054-1.117-.305-.705-.305-2.938v-8.428h-1.83v-1.93h1.83V65.78l2.481-1.49v5.117h2.509v1.931h-2.509v8.566q0 1.062.125 1.365.138.304.43.483.305.18.859.18.415 0 1.095-.097"/><path fill="#141416" fill-opacity=".7" d="M84.54 66.69v-2.855h2.494v2.855zm0 17.365V69.407h2.494v14.648zm6.901 0V71.338h-2.203v-1.93h2.203v-1.56q0-1.475.264-2.192.36-.966 1.26-1.559.915-.607 2.55-.607 1.055 0 2.33.248l-.375 2.166a8.4 8.4 0 0 0-1.469-.138q-1.137 0-1.608.483-.47.483-.47 1.807v1.351h2.868v1.931h-2.869v12.717zm7.193 5.642-.277-2.331q.818.22 1.427.22.832 0 1.331-.276t.818-.772q.236-.372.762-1.848.069-.207.222-.607l-5.586-14.676h2.689l3.063 8.483a38 38 0 0 1 1.067 3.393q.43-1.71 1.026-3.338l3.146-8.538h2.494l-5.599 14.897q-.9 2.413-1.4 3.324-.665 1.227-1.524 1.793-.86.579-2.051.579-.72 0-1.608-.303"/></svg>
